icon/pk/success-picture.svg

<svg viewBox="0 0 48 48" fill="none" xmlns="http://www.w3.org/2000/svg" height="1em" width="1em">
  <path d="M44 22C44 20.8954 43.1046 20 42 20C40.8954 20 40 20.8954 40 22H44ZM24 8C25.1046 8 26 7.10457 26 6C26 4.89543 25.1046 4 24 4V8ZM39 40H9V44H39V40ZM8 39V9H4V39H8ZM40 22V39H44V22H40ZM9 8H24V4H9V8ZM9 40C8.44772 40 8 39.5523 8 39H4C4 41.7614 6.23857 44 9 44V40ZM39 44C41.7614 44 44 41.7614 44 39H40C40 39.5523 39.5523 40 39 40V44ZM8 9C8 8.44772 8.44771 8 9 8V4C6.23858 4 4 6.23857 4 9H8Z" fill="black"/>
  <path d="M6 35L16.6931 25.198C17.4389 24.5143 18.5779 24.4953 19.3461 25.1538L32 36" stroke="black" stroke-width="4" stroke-linecap="round" stroke-linejoin="round"/>
  <path d="M28 31L32.7735 26.2265C33.4772 25.5228 34.5914 25.4436 35.3877 26.0408L42 31" stroke="black" stroke-width="4" stroke-linecap="round" stroke-linejoin="round"/>
  <path d="M31.4142 9.58579C30.6332 8.80474 29.3668 8.80474 28.5858 9.58579C27.8047 10.3668 27.8047 11.6332 28.5858 12.4142L31.4142 9.58579ZM34 15L32.5858 16.4142C33.3668 17.1953 34.6332 17.1953 35.4142 16.4142L34 15ZM43.4142 8.41421C44.1953 7.63317 44.1953 6.36683 43.4142 5.58579C42.6332 4.80474 41.3668 4.80474 40.5858 5.58579L43.4142 8.41421ZM28.5858 12.4142L32.5858 16.4142L35.4142 13.5858L31.4142 9.58579L28.5858 12.4142ZM35.4142 16.4142L43.4142 8.41421L40.5858 5.58579L32.5858 13.5858L35.4142 16.4142Z" fill="black"/>
</svg>

<svg width="48" height="48" fill="none" xmlns="http://www.w3.org/2000/svg"><path d="M44 22a2 2 0 1 0-4 0h4ZM24 8a2 2 0 1 0 0-4v4Zm15 32H9v4h30v-4ZM8 39V9H4v30h4Zm32-17v17h4V22h-4ZM9 8h15V4H9v4Zm0 32a1 1 0 0 1-1-1H4a5 5 0 0 0 5 5v-4Zm30 4a5 5 0 0 0 5-5h-4a1 1 0 0 1-1 1v4ZM8 9a1 1 0 0 1 1-1V4a5 5 0 0 0-5 5h4Z" fill="#000"/><path d="m6 35 10.693-9.802a2 2 0 0 1 2.653-.044L32 36M28 31l4.773-4.773a2 2 0 0 1 2.615-.186L42 31" stroke="#000" stroke-width="4" stroke-linecap="round" stroke-linejoin="round"/><path d="M31.414 9.586a2 2 0 1 0-2.828 2.828l2.828-2.828ZM34 15l-1.414 1.414a2 2 0 0 0 2.828 0L34 15Zm9.414-6.586a2 2 0 1 0-2.828-2.828l2.828 2.828Zm-14.828 4 4 4 2.828-2.828-4-4-2.828 2.828Zm6.828 4 8-8-2.828-2.828-8 8 2.828 2.828Z" fill="#000"/></svg>
